X:17
T:Golden Key. WR1776.17, The
B:Wm.Randall CDs 1776
Z:vmp.Steve Mansfield 2015
M:C
L:1/8
W:Cast off 2 Cu. lead up to the top cast off hands four round
W:at top then hands four round at bottom
Q:2/4=75
K:Bb
Bdfd efce | dfdB cAGF | GB =eg fedc | bgf=e f2F2 :|
|: Acec Bdfd | efge dcBA | Bbag gfed | dcBA B2B,2 :|

